X:1
T:Title
%%score { ( 1 3 ) | ( 2 4 ) }
L:1/8
Q:1/4=124
M:3/4
K:Db
V:1 treble nm="Grand Piano"
V:3 treble 
V:2 bass 
V:4 bass 
V:1
 [FA]2 [GB]2 [FA]2 | F4 D2 | F2 [FA]2 [Fd]2 | [Gc]6 | [CG]2 [CA]2 [CG]2 | [CE]4 C2 | D2 F2 [_FB]2 | %7
w: W.~Stillman~Martin * *|||||||
 [FA]6 | [FA]2 [GB]2 [FA]2 | [DF]4 [FA]2 | [Ad]2 [Ae]2 [Ad]2 | B6 | d2 c2 B2 | [FA]4 [=G,D]2 | %14
w: |||||||
 [A,DF]2 [B,CG]2[K:bass] [G,CE]2 | [F,D]6 | [Fd]2 [Fe]2 [Fd]2 | [DFA]4 [A,DF]2 | %18
w: ||||
 [CGc]2 [Gc]3 [Gc] | [CGc]6 | e2 f2 e2 | c4 A2 | [Fd]2 [Ad]2 [Gd]2 | [Fd]6 | [FA]2 [GB]2 [FA]2 | %25
w: |||||||
 [DF]4 [FA]2 | [Ad]2 [Ae]2 [Ad]2 | B6 | d2 c2 B2 | [FA]4 [=G,D]2 | %30
w: |||||
 [A,DF]2 [B,CG]2[K:bass] [G,CE]2 | [F,D]6 |] %32
w: ||
V:2
 [D,D]2 [D,D]2 [D,D]2 | [D,A,D]4 [D,F,]2 | [D,A,D]2 [D,F,]2 [D,A,]2 | [E,A,]6 | %4
 [A,,A,]2 [A,,A,]2 [A,,A,]2 | [A,,G,]4 [A,,G,]2 | [D,F,]2 [D,A,D]2 [D,=G,]2 | [D,A,]6 | %8
 [D,D]2 [D,D]2 [D,D]2 | [D,A,]4 [D,D]2 | [F,D]2 [F,D]2 [F,D]2 | [G,DG]6 | %12
 [G,B,G]2 [G,CG]2 [G,DG]2 | z2 A,2 =A,,2 | A,,2 A,,2 A,,2 | D,6 | [D,A,]2 [D,A,]2 [D,A,]2 | %17
 D,4 D,2 | A,,2 [B,,B,]3 [A,,A,] | A,,6 | [A,CG]2 [A,CG]2 [A,CG]2 | [A,EG]4 [A,CG]2 | %22
 [D,D]2 [D,C]2 [D,B,]2 | [D,A,]6 | [D,D]2 [D,D]2 [D,D]2 | [D,A,]4 [D,D]2 | [F,D]2 [F,D]2 [F,D]2 | %27
 [G,DG]6 | [G,B,G]2 [G,CG]2 [G,DG]2 | z2 A,2 =A,,2 | A,,2 A,,2 A,,2 | D,6 |] %32
V:3
 x6 | x6 | x6 | x6 | x6 | x6 | x6 | x6 | x6 | x6 | x6 | x6 | x6 | D2 z2 z2 | x4[K:bass] x2 | x6 | %16
 x6 | x6 | x6 | x6 | x6 | x6 | x6 | x6 | x6 | x6 | x6 | x6 | x6 | D2 z2 z2 | x4[K:bass] x2 | x6 |] %32
V:4
 x6 | x6 | x6 | x6 | x6 | x6 | x6 | x6 | x6 | x6 | x6 | x6 | x6 | D,4 z2 | x6 | x6 | x6 | x6 | x6 | %19
 x6 | x6 | x6 | x6 | x6 | x6 | x6 | x6 | x6 | x6 | D,4 z2 | x6 | x6 |] %32

